Obsidian/actions/16s/mail-mark-junk-symbolic.svg

<svg height="16" width="16" xmlns="http://www.w3.org/2000/svg"><g fill="#bebebe"><path d="m11.275.074a1 1 0 0 0 -.375-.074h-5.798a1 1 0 0 0 -.71.295l-4.1 4.1a1 1 0 0 0 -.293.706l.001 5.797a1 1 0 0 0 .294.71l4.1 4.1a1 1 0 0 0 .706.293l5.798-.001a1 1 0 0 0 .71-.294l4.1-4.1a1 1 0 0 0 .293-.706l-.001-5.798a1 1 0 0 0 -.294-.71l-4.1-4.1a1 1 0 0 0 -.331-.218zm-.79 1.926 3.515 3.515v4.97l-3.515 3.515h-4.97l-3.515-3.515v-4.97l3.515-3.515z"/><path d="m6.994 4h2v3l-.25 2h-1.469l-.28-2zm1 5.75a1.25 1.25 0 1 1 0 2.5 1.25 1.25 0 0 1 0-2.5z"/></g></svg>

<?xml version="1.0" encoding="UTF-8" standalone="no"?>
<svg
   xmlns:dc="http://purl.org/dc/elements/1.1/"
   xmlns:cc="http://creativecommons.org/ns#"
   xmlns:rdf="http://www.w3.org/1999/02/22-rdf-syntax-ns#"
   xmlns:svg="http://www.w3.org/2000/svg"
   xmlns="http://www.w3.org/2000/svg"
   xmlns:sodipodi="http://sodipodi.sourceforge.net/DTD/sodipodi-0.dtd"
   xmlns:inkscape="http://www.inkscape.org/namespaces/inkscape"
   width="16"
   height="16"
   version="1.1"
   id="svg8"
   sodipodi:docname="mail-mark-junk-symbolic.svg"
   inkscape:version="0.92.4 (unknown)">
  <metadata
     id="metadata14">
    <rdf:RDF>
      <cc:Work
         rdf:about="">
        <dc:format>image/svg+xml</dc:format>
        <dc:type
           rdf:resource="http://purl.org/dc/dcmitype/StillImage" />
      </cc:Work>
    </rdf:RDF>
  </metadata>
  <defs
     id="defs12" />
  <sodipodi:namedview
     pagecolor="#ffffff"
     bordercolor="#666666"
     borderopacity="1"
     objecttolerance="10"
     gridtolerance="10"
     guidetolerance="10"
     inkscape:pageopacity="0"
     inkscape:pageshadow="2"
     inkscape:window-width="1920"
     inkscape:window-height="1010"
     id="namedview10"
     showgrid="false"
     inkscape:zoom="14.75"
     inkscape:cx="0.13559322"
     inkscape:cy="8"
     inkscape:window-x="0"
     inkscape:window-y="32"
     inkscape:window-maximized="1"
     inkscape:current-layer="svg8" />
  <g
     color="#000"
     font-weight="400"
     fill="#2e3436"
     id="g6"
     style="fill:#bebebe;fill-opacity:1">
    <path
       d="M11.275.074A1 1 0 0 0 10.9 0H5.102a1 1 0 0 0-.71.295l-4.1 4.1a1 1 0 0 0-.293.706L0 10.898a1 1 0 0 0 .294.71l4.1 4.1a1 1 0 0 0 .706.293L10.898 16a1 1 0 0 0 .71-.294l4.1-4.1a1 1 0 0 0 .293-.706L16 5.102a1 1 0 0 0-.294-.71l-4.1-4.1a1 1 0 0 0-.331-.218zM10.485 2L14 5.515v4.97L10.485 14h-4.97L2 10.485v-4.97L5.515 2z"
       style="line-height:normal;font-variant-ligatures:normal;font-variant-position:normal;font-variant-caps:normal;font-variant-numeric:normal;font-variant-alternates:normal;font-feature-settings:normal;text-indent:0;text-align:start;text-decoration-line:none;text-decoration-style:solid;text-decoration-color:#000;text-transform:none;text-orientation:mixed;shape-padding:0;isolation:auto;mix-blend-mode:normal;fill:#bebebe;fill-opacity:1"
       font-family="sans-serif"
       white-space="normal"
       overflow="visible"
       id="path2" />
    <path
       d="M6.994 4h2v3l-.25 2H7.275l-.28-2zm1 5.75a1.25 1.25 0 1 1 0 2.5 1.25 1.25 0 0 1 0-2.5z"
       style="line-height:normal;-inkscape-font-specification:Sans;text-indent:0;text-align:start;text-decoration-line:none;text-transform:none;marker:none;fill:#bebebe;fill-opacity:1"
       font-family="Sans"
       overflow="visible"
       id="path4" />
  </g>
</svg>
